X: 81
T:Missa D'ung aultre amer / Kyrie
N: Derived from Jos0703a-Missa_Dung_aultre_amer-Kyrie.krn
C: Josquin des Prez
%%abc-version 2.0
%%abcx-abcm2ps-target-version 5.9.1 (29 Sep 2008)
%%abc-creator hum2abc beta
%%abcx-conversion-date 2019/02/12 16:15:42
%%abc-edited-by Jesse Rodin
%%abc-edited-by Jesse Rodin; Victoria Chang 2012/02/26
%%abcx-initial-encoding-date 2012/02/26/
%%humdrum-veritas 1525970642
%%humdrum-veritas-data 1740822667
%%linebreak <none>
%%barnumbers 0
L: 1/4
M: 2/1
Q: 1/2=120
%%staves [1 2 3 4]
V: 1 clef=treble
V: 2 clef=treble-8
V: 3 clef=treble-8
V: 4 clef=bass
K: F
[V:1] G8 | 
[V:2] z8 | 
[V:3] G6E2 | 
[V:4] z8 | 
[V:1] A4G4 | 
[V:2] z8 | 
[V:3] F4G4 | 
[V:4] z8 | 
[V:1] d6cB | 
[V:2] z8 | 
[V:3] B8 | 
[V:4] z8 | 
[V:1] A2c3BAG | 
[V:2] z8 | 
[V:3] c8 | 
[V:4] z8 | 
[V:1] F3GB2A2- | 
[V:2] D6EF | 
[V:3] d6c2 | 
[V:4] z8 | 
[V:1] AGG4^F2 | 
[V:2] G2ABc3d | 
[V:3] B4A4 | 
[V:4] z8 | 
[V:1] G8 | 
[V:2] _e2d3cB2- | 
[V:3] G6FE | 
[V:4] G,,8- | 
[V:1] z8 | 
[V:2] B2AGF4- | 
[V:3] D8 | 
[V:4] G,,4D,4- | 
[V:1] z8 | 
[V:2] F2D2E2F2 | 
[V:3] B4A4 | 
[V:4] D,2B,,2C,2D,2 | 
[V:1] z8 | 
[V:2] G3FD2_E2- | 
[V:3] B4G4- | 
[V:4] G,,3A,,B,,2C,2- | 
[V:1] z4C4 | 
[V:2] EDCB,C4 | 
[V:3] G2^F2^F2E2 | 
[V:4] C,B,,A,,G,,A,,4 | 
[V:1] B,4C4- | 
[V:2] D4E4 | 
[V:3] G4C4- | 
[V:4] G,,2B,,2A,,4- | 
[V:1] C2B,A,B,3C | 
[V:2] F4z2G2 | 
[V:3] C4G4 | 
[V:4] A,,4G,,4 | 
[V:1] A,2G,2B,2C2 | 
[V:2] A2B4AG | 
[V:3] F2G4FE | 
[V:4] z4G,4 | 
[V:1] D4E4- | 
[V:2] F4z2G2- | 
[V:3] F2D2C4 | 
[V:4] A,2B,2C4 | 
[V:1] E2D2B4- | 
[V:2] GABcd2G2 | 
[V:3] G8 | 
[V:4] B,4G,2B,2- | 
[V:1] B4A4 | 
[V:2] d2f3ed2- | 
[V:3] D4F4 | 
[V:4] B,2A,G,F,4 | 
[V:1] G2G4FE | 
[V:2] d2cBc2dc | 
[V:3] E8 | 
[V:4] G,2C,2G,4 | 
[V:1] F8- | 
[V:2] d8- | 
[V:3] D8- | 
[V:4] A,2B,4A,G, | 
[V:1] F8 ||  
[V:2] d8 ||  
[V:3] D8 ||  
[V:4] A,8 ||  
[V:1]  [K:F] [M:2/1]z8 | 
[V:2]  [K:F] [M:2/1]G4g4- | 
[V:3]  [K:F] [M:2/1]B8 | 
[V:4]  [K:F] [M:2/1]B,6A,G, | 
[V:1] z8 | 
[V:2] g2fef4 | 
[V:3] c4c4 | 
[V:4] A,4A,4 | 
[V:1] B8 | 
[V:2] B4z2B2- | 
[V:3] d8 | 
[V:4] G,8 | 
[V:1] c4c4 | 
[V:2] B2AGA4 | 
[V:3] _e8 | 
[V:4] z4C,4 | 
[V:1] d6cB | 
[V:2] B4F4 | 
[V:3] d4f4- | 
[V:4] B,,3C,D,3E, | 
[V:1] A2B3AG2- | 
[V:2] z8 | 
[V:3] f4B4- | 
[V:4] F,2B,,4_E,2- | 
[V:1] GFEDE4 | 
[V:2] z4c4 | 
[V:3] B4A4 | 
[V:4] E,D,C,B,,C,4 | 
[V:1] D6F2- | 
[V:2] d2B4AG | 
[V:3] B8 | 
[V:4] B,,6B,,2 | 
[V:1] F2EDC4 | 
[V:2] F4z4 | 
[V:3] f4e4 | 
[V:4] B,,4z4 | 
[V:1] B,4F4 | 
[V:2] d6f2- | 
[V:3] f4d4- | 
[V:4] B,,6B,,2 | 
[V:1] z2F2G2A2 | 
[V:2] f2edc4 | 
[V:3] d4e4 | 
[V:4] B,,4z4 | 
[V:1] B6AG | 
[V:2] z2B3cde | 
[V:3] f4B4 | 
[V:4] B,3A,G,4 | 
[V:1] A8- | 
[V:2] f2F2f3e | 
[V:3] c8- | 
[V:4] F,8- | 
[V:1] A8 ||  
[V:2] f8 ||  
[V:3] c8 ||  
[V:4] F,8 ||  
[V:1]  [K:F] [M:2/1]z8 | 
[V:2]  [K:F] [M:2/1]d6cd | 
[V:3]  [K:F] [M:2/1]B6A2 | 
[V:4]  [K:F] [M:2/1]z8 | 
[V:1] z8 | 
[V:2] _edcBA4 | 
[V:3] G4F4 | 
[V:4] z8 | 
[V:1] B6AG | 
[V:2] G4d4 | 
[V:3] G8 | 
[V:4] G,,6G,2- | 
[V:1] A4A4 | 
[V:2] z4d4 | 
[V:3] D8 | 
[V:4] G,2^F,E,F,4 | 
[V:1] G6c2 | 
[V:2] B4_e4 | 
[V:3] _E8 | 
[V:4] G,4C,4 | 
[V:1] B2A4GF | 
[V:2] d2c4=B2 | 
[V:3] F8 | 
[V:4] D,8 | 
[V:1] E4z2E2 | 
[V:2] c2C3DE2 | 
[V:3] G8 | 
[V:4] C,8 | 
[V:1] D2F3GA2- | 
[V:2] F2D2F3G | 
[V:3] B4A4 | 
[V:4] B,,3C,D,E,F,2- | 
[V:1] ABc3BAG | 
[V:2] A3Bc3d/e/ | 
[V:3] c8 | 
[V:4] F,2E,D,C,4 | 
[V:1] B2A2B2A2 | 
[V:2] f3ed2c2 | 
[V:3] d4B2c2 | 
[V:4] B,,2F,2G,2A,2 | 
[V:1] B2A3GB2- | 
[V:2] f6e2 | 
[V:3] d3cA2G2- | 
[V:4] D,3E,F,2G,A, | 
[V:1] BAG3^FFE | 
[V:2] d4z2d2- | 
[V:3] G2B2A4 | 
[V:4] B,2B,,2C,2D,2 | 
[V:1] G8- | 
[V:2] dcB3AG2- | 
[V:3] G8- | 
[V:4] G,,8- | 
[V:1] G8- | 
[V:2] GF_ED_E4 | 
[V:3] G8- | 
[V:4] G,,8- | 
[V:1] G8 |]  
[V:2] D8 |]  
[V:3] G8 |]  
[V:4] G,,8 |]  



